public/images/icons/wiki/straal/altair.svg

<svg fill="none" height="310" stroke-width="20" width="310" xmlns="http://www.w3.org/2000/svg"><g stroke-linecap="round" stroke-linejoin="round"><path d="m125 65h60v150h-60z" fill="#eee" stroke="#eee" stroke-width="20"/><path d="m125 50q15 0 15 15m45-15q-15 0-15 15m-30 0v-15h30v15z" fill="#212121" stroke="#212121" stroke-width="11"/><path d="m110 65a15 15 0 0 1 15-15h60a15 15 0 0 1 15 15m-90 0v150m90-150v150m-90 0a15 15 0 0 0 15 15m75-15a15 15 0 0 1 -15 15m-60 0h60z" fill="none" stroke="#eee" stroke-width="5"/></g></svg>

<svg xmlns="http://www.w3.org/2000/svg" baseProfile="full" version="1.1" width="310px" height="310px" style="fill: none; width: 310px; height: 310px; stroke-width: 20;"><path d="M125,65 L125,65 L185,65 L185,215 L125,215 L125,65 " style="stroke-width: 20; stroke-linecap: round; stroke-linejoin: round; stroke: rgb(238, 238, 238); fill: rgb(238, 238, 238);"></path><path d="M125,50 Q140,50 140,65 M185,50 Q170,50 170,65 M140,65 L140,65 L140,50 L170,50 L170,65 L140,65 " style="stroke-width: 11; stroke-linecap: round; stroke-linejoin: round; stroke: rgb(33, 33, 33); fill: rgb(33, 33, 33);"></path><path d="M110,65 A15,15 0 0,1 125,50 L125,50 L185,50 A15,15 0 0,1 200,65 M110,65 L110,65 L110,215 M200,65 L200,65 L200,215 M110,215 A15,15 0 0,0 125,230 M200,215 A15,15 0 0,1 185,230 M125,230 L125,230 L185,230 Z " style="stroke-width: 5; stroke-linecap: round; stroke-linejoin: round; stroke: rgb(238, 238, 238); fill: none;"></path></svg>
